X:358
T:Reel 358
M:4/4
K:Gmaj
L:1/8
dc|B>G (3GGG BGdG|B>G (3GGG b2gb|a>f (3gfe  (3fga bg| (3efg dB A2:|cB|ABcd edgb|agfg ecBG|ABcd edge| (3aba bg a2gb|agfg  (3efg dB|cedB A2 (3ABc |efge  (3fed eB|AGAB c2|BA|Ggfe dcBG|AGBd e2dB|cedB cBcB|ABAG A2dc| (3BAG dG eGdG| (3gfg de e2dB|GABc dgfd|cBAB c2|
